lib/icons-source/settings.svg

<svg width="25" height="25" viewBox="0 0 25 25" fill="none" xmlns="http://www.w3.org/2000/svg">
<g clip-path="url(#clip0_8_8)">
<rect width="25" height="25" fill="white"/>
<path d="M12.5538 25H12.4462C11.1668 25 10.1042 24.0402 9.97429 22.7673L9.97143 22.7392C9.9062 22.0987 9.49841 21.55 8.90713 21.3074C8.88157 21.2969 8.85639 21.2864 8.83121 21.2759C8.23116 21.0236 7.55081 21.1174 7.0549 21.5206C6.05164 22.3362 4.61426 22.2534 3.71132 21.328L3.64609 21.261C2.77538 20.3686 2.7029 18.9589 3.47767 17.9821L3.48377 17.9743C3.88832 17.4644 3.98445 16.7824 3.73516 16.1943C3.72009 16.1591 3.70541 16.1236 3.69072 16.0879C3.44982 15.4999 2.90184 15.0938 2.26078 15.0286L2.23293 15.0257C0.959778 14.8958 0 13.8332 0 12.5538V12.4462C0 11.1668 0.959778 10.1042 2.23274 9.97429L2.26059 9.97143C2.90146 9.9062 3.45039 9.49783 3.6932 8.90598C3.7035 8.88042 3.71418 8.85487 3.72486 8.82931C3.97663 8.23078 3.88279 7.55119 3.47996 7.05566L3.46947 7.04269C2.66361 6.05125 2.73705 4.62208 3.64056 3.71857L3.71857 3.64075C4.62208 2.73705 6.05125 2.66361 7.04269 3.46966L7.04708 3.47309C7.54833 3.88069 8.23078 3.97701 8.82874 3.72524C8.85334 3.71494 8.87814 3.70464 8.90312 3.69434C9.49669 3.45039 9.9062 2.90089 9.97143 2.26059L9.97429 2.23274C10.1042 0.959778 11.1668 0 12.4462 0H12.5538C13.8332 0 14.8958 0.959778 15.0257 2.23274C15.0927 2.88868 15.5113 3.4523 16.1186 3.70331L16.1711 3.72505C16.7795 3.98102 17.4746 3.89385 17.9844 3.49751L18.0275 3.46394C19.0144 2.69661 20.4254 2.78454 21.3095 3.66879L21.3312 3.69034C22.2153 4.57458 22.3032 5.98545 21.5357 6.9725L21.5025 7.01542C21.106 7.52525 21.0188 8.22029 21.2749 8.82931L21.2883 8.86116C21.5466 9.48143 22.113 9.90753 22.7673 9.97429C24.0402 10.1042 25 11.1668 25 12.4462V12.5538C25 13.8332 24.0402 14.8958 22.7673 15.0257L22.7392 15.0286C22.0982 15.0938 21.5502 15.5001 21.3091 16.0885C21.2959 16.1205 21.2826 16.153 21.2688 16.1854C21.0203 16.7728 21.1195 17.4503 21.5275 17.9537C21.5284 17.955 21.5296 17.9562 21.5303 17.9573C22.3364 18.9487 22.2628 20.3779 21.3593 21.2814L21.2814 21.3594C20.3779 22.263 18.9486 22.3364 17.9571 21.5303L17.9457 21.5212C17.4492 21.1174 16.7686 21.0236 16.1694 21.2757C16.1436 21.2864 16.1182 21.2969 16.0931 21.3074C15.5016 21.5502 15.0938 22.0989 15.0284 22.7394L15.0257 22.7673C14.8958 24.0402 13.8332 25 12.5538 25ZM8.14171 19.1824C8.62904 19.1824 9.12037 19.2785 9.58767 19.4752C9.6077 19.4836 9.62849 19.4921 9.64909 19.5005C10.9077 20.0172 11.776 21.1824 11.9146 22.5412L11.9173 22.5693C11.9452 22.8415 12.1725 23.0469 12.4462 23.0469H12.5538C12.8275 23.0469 13.0548 22.8415 13.0827 22.5693L13.0854 22.5414C13.224 21.1824 14.0923 20.0172 15.3511 19.5005C15.3715 19.4921 15.3923 19.4836 15.4129 19.475C16.6779 18.9428 18.1204 19.146 19.1772 20.005L19.1885 20.0144C19.4014 20.1874 19.7071 20.1715 19.9003 19.9783L19.9783 19.9003C20.1712 19.7075 20.1872 19.4029 20.0163 19.1908C20.0153 19.1898 20.0146 19.1887 20.0138 19.1879C19.1475 18.1223 18.939 16.6803 19.47 15.4247C19.4807 15.3994 19.4912 15.3742 19.5015 15.3488C20.0167 14.0911 21.1813 13.224 22.5414 13.0854L22.5695 13.0827C22.8416 13.0548 23.0469 12.8275 23.0469 12.5538V12.4462C23.0469 12.1725 22.8415 11.9452 22.5693 11.9173C21.2008 11.7779 20.0191 10.8948 19.4857 9.61266L19.4748 9.58691C18.9451 8.32767 19.1315 6.88305 19.9608 5.81646L19.994 5.77374C20.1582 5.56259 20.1393 5.26066 19.9503 5.07145L19.9286 5.0499C19.7393 4.86069 19.4374 4.8418 19.2265 5.00603L19.1833 5.0396C18.117 5.86853 16.6723 6.05488 15.4135 5.5254L15.3717 5.50804C14.1001 4.98219 13.2225 3.80306 13.0827 2.43092C13.0548 2.15855 12.8277 1.95312 12.5538 1.95312H12.4462C12.1725 1.95312 11.9452 2.15855 11.9175 2.43073L11.9146 2.45857C11.7762 3.8168 10.9066 4.98257 9.64546 5.50079C9.62601 5.509 9.60636 5.51701 9.58691 5.52521C8.32253 6.05774 6.87752 5.85232 5.8157 4.98905L5.8115 4.98562C5.59864 4.81262 5.29289 4.82845 5.09968 5.02167L5.02186 5.09968C4.82845 5.29289 4.81281 5.59864 4.98524 5.81074L4.99573 5.8239C5.85442 6.87981 6.05736 8.32176 5.5254 9.58672C5.51682 9.60693 5.50861 9.62696 5.50041 9.6468C4.98333 10.9072 3.81794 11.776 2.45876 11.9146L2.43073 11.9173C2.15855 11.9452 1.95332 12.1725 1.95332 12.4462V12.5538C1.95332 12.8275 2.15855 13.0548 2.43092 13.0827L2.45857 13.0854C3.81851 13.224 4.98314 14.0909 5.49812 15.3477C5.50976 15.3759 5.52139 15.4037 5.53322 15.4316C6.06194 16.6784 5.863 18.1175 5.01442 19.1875L5.00832 19.1952C4.84238 19.4046 4.85783 19.7062 5.04398 19.8971L5.10921 19.964C5.30205 20.1614 5.60875 20.1792 5.82294 20.005C6.48918 19.4633 7.30934 19.1824 8.14171 19.1824ZM14.2107 17.9008C14.7249 17.7382 15.0099 17.1894 14.847 16.6752C14.6843 16.161 14.1356 15.876 13.6213 16.0387C13.2605 16.153 12.8832 16.2109 12.5 16.2109C10.4538 16.2109 8.78906 14.5462 8.78906 12.5C8.78906 10.4538 10.4538 8.78906 12.5 8.78906C14.5462 8.78906 16.2109 10.4538 16.2109 12.5C16.2109 12.8555 16.161 13.2069 16.0622 13.5443C15.9109 14.0619 16.2077 14.6042 16.7253 14.7556C17.2432 14.9073 17.7855 14.6103 17.9369 14.0924C18.0876 13.5771 18.1641 13.0413 18.1641 12.5C18.1641 9.37691 15.6231 6.83594 12.5 6.83594C9.37691 6.83594 6.83594 9.37691 6.83594 12.5C6.83594 15.6231 9.37691 18.1641 12.5 18.1641C13.0833 18.1641 13.6589 18.0756 14.2107 17.9008Z" fill="black"/>
</g>
<defs>
<clipPath id="clip0_8_8">
<rect width="25" height="25" fill="white"/>
</clipPath>
</defs>
</svg>

<svg viewBox="0 0 25 25" fill="none" xmlns="http://www.w3.org/2000/svg"><rect fill="white"/><path d="M12.554 25h-.108c-1.28 0-2.342-.96-2.472-2.233l-.003-.028a1.73 1.73 0 0 0-1.14-1.463 1.74 1.74 0 0 0-1.776.245 2.47 2.47 0 0 1-3.344-.193l-.065-.067a2.49 2.49 0 0 1-.168-3.279l.006-.008c.404-.51.5-1.192.251-1.78l-.044-.106a1.73 1.73 0 0 0-1.43-1.06l-.028-.002A2.48 2.48 0 0 1 0 12.554v-.108c0-1.28.96-2.342 2.233-2.472l.028-.003a1.73 1.73 0 0 0 1.432-1.065l.032-.077a1.74 1.74 0 0 0-.245-1.773l-.01-.013a2.48 2.48 0 0 1 .17-3.324l.079-.078a2.48 2.48 0 0 1 3.324-.171l.004.003a1.75 1.75 0 0 0 1.856.221 1.74 1.74 0 0 0 1.068-1.433l.003-.028A2.48 2.48 0 0 1 12.446 0h.108c1.28 0 2.342.96 2.472 2.233a1.78 1.78 0 0 0 1.093 1.47l.052.022a1.81 1.81 0 0 0 1.813-.227l.043-.034a2.49 2.49 0 0 1 3.282.205l.022.021a2.49 2.49 0 0 1 .205 3.283l-.034.042a1.81 1.81 0 0 0-.227 1.814l.013.032c.259.62.825 1.047 1.48 1.113A2.48 2.48 0 0 1 25 12.446v.108c0 1.28-.96 2.342-2.233 2.472l-.028.003a1.73 1.73 0 0 0-1.43 1.06l-.04.096a1.73 1.73 0 0 0 .259 1.769l.002.003c.806.992.733 2.42-.17 3.324l-.079.078a2.48 2.48 0 0 1-3.324.171l-.011-.009a1.74 1.74 0 0 0-1.777-.245l-.076.031c-.591.243-1 .792-1.065 1.432l-.002.028A2.48 2.48 0 0 1 12.554 25m-4.412-5.818a3.7 3.7 0 0 1 1.507.319 3.68 3.68 0 0 1 2.266 3.04l.002.028a.53.53 0 0 0 .53.478h.107a.53.53 0 0 0 .529-.478l.002-.028a3.68 3.68 0 0 1 2.266-3.04l.062-.026a3.69 3.69 0 0 1 3.764.53l.012.01a.53.53 0 0 0 .711-.037l.078-.078a.53.53 0 0 0 .038-.71l-.002-.002a3.68 3.68 0 0 1-.512-3.84 3.68 3.68 0 0 1 3.04-2.263l.027-.002a.53.53 0 0 0 .478-.53v-.107a.53.53 0 0 0-.478-.529 3.76 3.76 0 0 1-3.083-2.304l-.011-.026a3.77 3.77 0 0 1 .486-3.77l.033-.043a.533.533 0 0 0-.044-.703l-.021-.021a.53.53 0 0 0-.702-.044l-.044.034a3.77 3.77 0 0 1-3.77.485l-.041-.017a3.73 3.73 0 0 1-2.29-3.077.53.53 0 0 0-.528-.478h-.108a.53.53 0 0 0-.528.478l-.003.028A3.69 3.69 0 0 1 9.645 5.5l-.058.024a3.69 3.69 0 0 1-3.771-.536l-.005-.003a.53.53 0 0 0-.711.036l-.078.078a.53.53 0 0 0-.037.71l.01.014a3.69 3.69 0 0 1 .53 3.763l-.025.06a3.68 3.68 0 0 1-3.041 2.268l-.028.002a.53.53 0 0 0-.478.53v.107a.53.53 0 0 0 .478.529l.028.002a3.68 3.68 0 0 1 3.074 2.347 3.71 3.71 0 0 1-.519 3.755l-.006.008a.53.53 0 0 0 .036.702l.065.067c.193.197.5.215.714.041a3.67 3.67 0 0 1 2.319-.823m6.069-1.281a.976.976 0 1 0-.59-1.862A3.715 3.715 0 0 1 8.79 12.5a3.715 3.715 0 0 1 3.71-3.71 3.715 3.715 0 0 1 3.562 4.754.977.977 0 1 0 1.875.548A5.67 5.67 0 0 0 12.5 6.836 5.67 5.67 0 0 0 6.836 12.5a5.67 5.67 0 0 0 7.375 5.4" fill="black"/></svg>
